X:689
T:Frank's Reel
C:John McCusker
S:Drumtochty session, 15/7/04
N:Played by some of the Blackford Fiddlers
Z:Nigel Gatherer
M:4/4
L:1/8
K:A
z   | AcBA F2 AF | EFAB cABc | d3 f eAce | (3fga ec (3Bcd cB |
      AcBA F2 AF | EFAB cABc | d3 f ecAc |   BAGB     A3    :| 
efg | aAAg AAfA  | effe cABc | d3 f eAcA |   Bcde     fefg   |
      aAAg AAfA  | effe cABc | d3 f ecAc |   BAGB     Aefg   |
      aAAg AAfA  | effe cABc | d3 f eAce | (3fga ec (3Bcd cB |
      AcBA F2 AF | EFAB cABc | d3 f ecAc |   BAGB     A3    ||
<end>
<start>
